X:1
T:Title
%%score { ( 1 3 ) | ( 2 4 ) }
L:1/8
Q:1/4=106
M:4/4
K:E
V:1 treble nm="Grand Piano"
V:3 treble 
V:2 bass 
V:4 bass 
V:1
 [G,E]2 [B,EG]>[B,FA] [EGB]2 [G,E]2 | [CEe]2 [Ed]>[Ec] [EB]2 [EG]2 | %2
w: Thoro~Harris * * * *||
 [FA]2 [DB]>[DF] [EG]2 [FB][Ge] | [Fd]2 [Ec]2 B,2 z2 | [G,E]2 [B,EG]>[B,FA] [B,GB]2 [=DE]2 | %5
w: |||
 [CEe]2 [Ed]>[Ec] B2 G2 | c2 [Ad]>[Ad] [Ge]2 EF | G2 [DF]2 E4 | e e2 e [Ed]2 [Ec]2 | B B2 c B2 G2 | %10
w: |||||
 [DA] [DA]2 [=DB] [^DA]2 [B,F]2 | [EG]2 [=Gc]2 [B,^GB]2 cd | e e2 e [Ed]2 [Ec]2 | B B2 c B2 G2 | %14
w: ||||
 [DA] [DA]2 [DA] [DB]2 [DA]2 | [EG]2 [DF]2 E4 | e e2 e [Ed]2 [Ec]2 | B B2 c B2 G2 | %18
w: ||||
 [DA] [DA]2 [=DB] [^DA]2 [B,F]2 | [EG]2 [=Gc]2 [B,^GB]2 cd | e e2 e [Ed]2 [Ec]2 | B B2 c B2 G2 | %22
w: ||||
 [DA] [DA]2 [DA] [DB]2 [DA]2 | [EG]2 [DF]2 E4 |] %24
w: ||
V:2
 E,2 E,>E, E,2 E,2 | A,,2 [A,,B,]>[C,A,] [E,G,]2 [E,B,]2 | %2
 [D,B,]2 [B,,B,]>[B,,B,] [E,B,]2 [D,B,][C,B,] | [F,B,]2 [F,^A,]2 z2 =A,2 | E,2 E,>E, E,2 E,2 | %5
 A,,2 [A,,B,]>[C,A,] [E,G,E]2 [E,=DE]2 | [A,CE]2 [F,B,]>[F,B,] [E,B,]2 [G,B,][A,CE] | %7
 [B,E]2 [B,,A,]2 [E,G,]4 | [A,,CE] [A,,CE]2 [A,,CE] [A,,B,]2 [C,A,]2 | %9
 [E,G,E] [E,G,E]2 [E,A,E] [E,G,E]2 [E,B,E]2 | [B,,B,] [B,,F,]2 [B,,G,] [B,,F,]2 [D,A,]2 | %11
 [E,G,]2 [E,^A,]2 E,2 =A,B, | [A,,CE] [A,,CE]2 [A,,CE] [A,,B,]2 [C,A,]2 | %13
 [E,G,E] [E,G,E]2 [E,A,E] [E,G,E]2 [E,B,E]2 | [B,,B,] [B,,F,]2 [B,,F,] [B,,G,]2 [B,,F,]2 | %15
 [B,,B,]2 [B,,A,]2 [E,G,]4 | [A,,CE] [A,,CE]2 [A,,CE] [A,,B,]2 [C,A,]2 | %17
 [E,G,E] [E,G,E]2 [E,A,E] [E,G,E]2 [E,B,E]2 | [B,,B,] [B,,F,]2 [B,,G,] [B,,F,]2 [D,A,]2 | %19
 [E,G,]2 [E,^A,]2 E,2 =A,B, | [A,,CE] [A,,CE]2 [A,,CE] [A,,B,]2 [C,A,]2 | %21
 [E,G,E] [E,G,E]2 [E,A,E] [E,G,E]2 [E,B,E]2 | [B,,B,] [B,,F,]2 [B,,F,] [B,,G,]2 [B,,F,]2 | %23
 [B,,B,]2 [B,,A,]2 [E,G,]4 |] %24
V:3
 x8 | x8 | x8 | z4 [DB]4 | x8 | x8 | x8 | x8 | x8 | x8 | x8 | x8 | x8 | x8 | x8 | x8 | x8 | x8 | %18
 x8 | x8 | x8 | x8 | x8 | x8 |] %24
V:4
 x8 | x8 | x8 | z4 B,,4 | x8 | x8 | x8 | x8 | x8 | x8 | x8 | x8 | x8 | x8 | x8 | x8 | x8 | x8 | %18
 x8 | x8 | x8 | x8 | x8 | x8 |] %24

